Newaita-dark/mimetypes/64/application-x-java.svg

<?xml version="1.0" encoding="UTF-8"?>
<svg xmlns="http://www.w3.org/2000/svg" xmlns:xlink="http://www.w3.org/1999/xlink" width="64px" height="64px" viewBox="0 0 64 64" version="1.1">
<defs>
<linearGradient id="linear0" gradientUnits="userSpaceOnUse" x1="254" y1="233.5" x2="254" y2="254.666672" gradientTransform="matrix(0.125012,0,0,0.125012,1.32304,26.87757)">
<stop offset="0" style="stop-color:rgb(0%,0%,0%);stop-opacity:0.27451;"/>
<stop offset="1" style="stop-color:rgb(0%,0%,0%);stop-opacity:0;"/>
</linearGradient>
<radialGradient id="radial0" gradientUnits="userSpaceOnUse" cx="450.908936" cy="189.579361" fx="450.908936" fy="189.579361" r="21.166656" gradientTransform="matrix(0.000000348341,-0.156265,-0.281277,-0.000000203077,98.969138,127.190665)">
<stop offset="0" style="stop-color:rgb(0%,0%,0%);stop-opacity:0.313726;"/>
<stop offset="0.222222" style="stop-color:rgb(0%,0%,0%);stop-opacity:0.27451;"/>
<stop offset="1" style="stop-color:rgb(0%,0%,0%);stop-opacity:0;"/>
</radialGradient>
<radialGradient id="radial1" gradientUnits="userSpaceOnUse" cx="450.908936" cy="189.579361" fx="450.908936" fy="189.579361" r="21.166656" gradientTransform="matrix(-0.000000348341,0.156265,0.281277,0.000000203077,-36.786098,-15.054958)">
<stop offset="0" style="stop-color:rgb(0%,0%,0%);stop-opacity:0.313726;"/>
<stop offset="0.222222" style="stop-color:rgb(0%,0%,0%);stop-opacity:0.27451;"/>
<stop offset="1" style="stop-color:rgb(0%,0%,0%);stop-opacity:0;"/>
</radialGradient>
<radialGradient id="radial2" gradientUnits="userSpaceOnUse" cx="450.908936" cy="189.579361" fx="450.908936" fy="189.579361" r="21.166656" gradientTransform="matrix(-0.000000348341,-0.156265,0.281277,-0.000000203077,-36.786098,127.190665)">
<stop offset="0" style="stop-color:rgb(0%,0%,0%);stop-opacity:0.313726;"/>
<stop offset="0.222222" style="stop-color:rgb(0%,0%,0%);stop-opacity:0.27451;"/>
<stop offset="1" style="stop-color:rgb(0%,0%,0%);stop-opacity:0;"/>
</radialGradient>
<radialGradient id="radial3" gradientUnits="userSpaceOnUse" cx="450.908936" cy="189.579361" fx="450.908936" fy="189.579361" r="21.166656" gradientTransform="matrix(0.000000348341,0.156265,-0.281277,0.000000203077,98.969135,-15.054959)">
<stop offset="0" style="stop-color:rgb(0%,0%,0%);stop-opacity:0.313726;"/>
<stop offset="0.222222" style="stop-color:rgb(0%,0%,0%);stop-opacity:0.27451;"/>
<stop offset="1" style="stop-color:rgb(0%,0%,0%);stop-opacity:0;"/>
</radialGradient>
<linearGradient id="linear1" gradientUnits="userSpaceOnUse" x1="940" y1="1695.118164" x2="940" y2="175.118118" gradientTransform="matrix(0.0330761,0,0,0.0330761,0,0)">
<stop offset="0" style="stop-color:rgb(100%,67.058825%,56.862748%);stop-opacity:1;"/>
<stop offset="1" style="stop-color:rgb(100%,80.000001%,73.725492%);stop-opacity:1;"/>
</linearGradient>
<linearGradient id="linear2" gradientUnits="userSpaceOnUse" x1="249.189423" y1="233.5" x2="249.189423" y2="254.666687" gradientTransform="matrix(0.0597883,0,0,0.218771,30.084847,-32.721821)">
<stop offset="0" style="stop-color:rgb(0%,0%,0%);stop-opacity:0.27451;"/>
<stop offset="1" style="stop-color:rgb(0%,0%,0%);stop-opacity:0;"/>
</linearGradient>
<linearGradient id="linear3" gradientUnits="userSpaceOnUse" x1="338.666656" y1="233.5" x2="338.666656" y2="-168.666672" gradientTransform="matrix(0.125012,0,0,0.125012,0,26.877566)">
<stop offset="0" style="stop-color:rgb(100%,43.921569%,26.274511%);stop-opacity:1;"/>
<stop offset="1" style="stop-color:rgb(100%,54.11765%,39.607844%);stop-opacity:1;"/>
</linearGradient>
<linearGradient id="linear4" gradientUnits="userSpaceOnUse" x1="940" y1="1695.118164" x2="940" y2="175.118118" gradientTransform="matrix(0.264583,0,0,0.264583,-15.875001,-215)">
<stop offset="0" style="stop-color:rgb(100%,43.921569%,26.274511%);stop-opacity:1;"/>
<stop offset="1" style="stop-color:rgb(100%,54.11765%,39.607844%);stop-opacity:1;"/>
</linearGradient>
<linearGradient id="linear5" gradientUnits="userSpaceOnUse" x1="246.0625" y1="244.083328" x2="246.0625" y2="-158.083344" >
<stop offset="0" style="stop-color:rgb(100%,43.921569%,26.274511%);stop-opacity:1;"/>
<stop offset="1" style="stop-color:rgb(100%,54.11765%,39.607844%);stop-opacity:1;"/>
</linearGradient>
<linearGradient id="linear6" gradientUnits="userSpaceOnUse" x1="246.0625" y1="244.083328" x2="246.0625" y2="-158.083328" >
<stop offset="0" style="stop-color:rgb(100%,43.921569%,26.274511%);stop-opacity:1;"/>
<stop offset="1" style="stop-color:rgb(100%,54.11765%,39.607844%);stop-opacity:1;"/>
</linearGradient>
</defs>
<g id="surface1">
<path style=" stroke:none;fill-rule:nonzero;fill:url(#linear0);" d="M 15.875 56.066406 L 46.304688 56.066406 L 46.304688 58.714844 L 15.875 58.714844 Z M 15.875 56.066406 "/>
<path style=" stroke:none;fill-rule:nonzero;fill:url(#radial0);" d="M 46.304688 56.066406 L 51.597656 56.066406 L 51.597656 53.421875 L 46.304688 53.421875 Z M 46.304688 56.066406 "/>
<path style=" stroke:none;fill-rule:nonzero;fill:url(#radial1);" d="M 15.875 56.066406 L 10.585938 56.066406 L 10.585938 58.714844 L 15.875 58.714844 Z M 15.875 56.066406 "/>
<path style=" stroke:none;fill-rule:nonzero;fill:url(#radial2);" d="M 15.875 56.066406 L 10.585938 56.066406 L 10.585938 53.421875 L 15.875 53.421875 Z M 15.875 56.066406 "/>
<path style=" stroke:none;fill-rule:nonzero;fill:url(#radial3);" d="M 46.304688 56.066406 L 51.597656 56.066406 L 51.597656 58.714844 L 46.304688 58.714844 Z M 46.304688 56.066406 "/>
<path style=" stroke:none;fill-rule:nonzero;fill:url(#linear1);" d="M 37.085938 5.792969 L 13.230469 5.792969 C 11.765625 5.792969 10.585938 6.972656 10.585938 8.4375 L 10.585938 53.421875 C 10.585938 54.886719 11.765625 56.066406 13.230469 56.066406 L 48.953125 56.066406 C 50.417969 56.066406 51.597656 54.886719 51.597656 53.421875 L 51.597656 20.308594 Z M 37.085938 5.792969 "/>
<path style=" stroke:none;fill-rule:nonzero;fill:url(#linear2);" d="M 37.046875 18.359375 L 49.613281 18.359375 L 51.597656 20.34375 L 51.597656 22.992188 L 37.046875 22.992188 Z M 37.046875 18.359375 "/>
<path style=" stroke:none;fill-rule:nonzero;fill:rgb(0%,0%,0%);fill-opacity:0.235294;" d="M 10.585938 52.394531 L 10.585938 53.421875 C 10.585938 54.886719 11.765625 56.066406 13.230469 56.066406 L 48.953125 56.066406 C 50.417969 56.066406 51.597656 54.886719 51.597656 53.421875 L 51.597656 52.394531 C 51.597656 53.859375 50.417969 55.039062 48.953125 55.039062 L 13.230469 55.039062 C 11.765625 55.039062 10.585938 53.859375 10.585938 52.394531 Z M 10.585938 52.394531 "/>
<path style=" stroke:none;fill-rule:nonzero;fill:rgb(100%,100%,100%);fill-opacity:0.392157;" d="M 13.230469 5.792969 C 11.765625 5.792969 10.585938 6.972656 10.585938 8.4375 L 10.585938 9.429688 C 10.585938 7.964844 11.765625 6.785156 13.230469 6.785156 L 37.085938 6.785156 L 51.597656 21.300781 L 51.597656 20.308594 L 37.085938 5.792969 Z M 13.230469 5.792969 "/>
<path style=" stroke:none;fill-rule:nonzero;fill:url(#linear3);" d="M 51.597656 20.308594 L 37.085938 5.792969 L 37.085938 17.660156 C 37.085938 19.125 38.265625 20.308594 39.730469 20.308594 Z M 51.597656 20.308594 "/>
<path style=" stroke:none;fill-rule:nonzero;fill:rgb(0%,0%,0%);fill-opacity:0.235294;" d="M 37.085938 17.039062 L 37.085938 17.660156 C 37.085938 19.125 38.265625 20.308594 39.730469 20.308594 L 51.597656 20.308594 L 50.976562 19.683594 L 39.730469 19.683594 C 38.265625 19.683594 37.085938 18.503906 37.085938 17.039062 Z M 37.085938 17.039062 "/>
<path style=" stroke:none;fill-rule:nonzero;fill:rgb(100%,100%,100%);fill-opacity:0.392157;" d="M 37.085938 5.792969 L 37.085938 6.785156 L 50.605469 20.308594 L 51.597656 20.308594 Z M 37.085938 5.792969 "/>
<path style=" stroke:none;fill-rule:nonzero;fill:rgb(12.941177%,12.941177%,12.941177%);fill-opacity:1;" d="M 37.082031 5.605469 C 36.980469 5.605469 36.898438 5.691406 36.898438 5.792969 L 36.898438 17.660156 C 36.898438 19.226562 38.164062 20.496094 39.730469 20.496094 L 51.597656 20.496094 C 51.675781 20.492188 51.742188 20.449219 51.773438 20.378906 C 51.800781 20.308594 51.785156 20.226562 51.730469 20.175781 L 37.214844 5.660156 C 37.179688 5.625 37.132812 5.605469 37.082031 5.605469 Z M 37.273438 6.246094 L 51.144531 20.117188 L 39.730469 20.117188 C 38.363281 20.117188 37.273438 19.027344 37.273438 17.660156 Z M 37.273438 6.246094 "/>
<path style=" stroke:none;fill-rule:nonzero;fill:rgb(12.941177%,12.941177%,12.941177%);fill-opacity:1;" d="M 13.230469 5.605469 C 11.664062 5.605469 10.398438 6.871094 10.398438 8.4375 L 10.398438 53.421875 C 10.398438 54.988281 11.664062 56.253906 13.230469 56.253906 L 48.953125 56.253906 C 50.519531 56.253906 51.785156 54.988281 51.785156 53.421875 L 51.785156 20.308594 C 51.785156 20.257812 51.765625 20.210938 51.730469 20.175781 L 37.214844 5.660156 C 37.179688 5.625 37.132812 5.605469 37.085938 5.605469 Z M 13.230469 5.980469 L 37.007812 5.980469 L 51.410156 20.382812 L 51.410156 53.421875 C 51.410156 54.785156 50.316406 55.878906 48.953125 55.878906 L 13.230469 55.878906 C 11.863281 55.878906 10.773438 54.785156 10.773438 53.421875 L 10.773438 8.4375 C 10.773438 7.074219 11.863281 5.980469 13.230469 5.980469 Z M 13.230469 5.980469 "/>
<path style="fill-rule:nonzero;fill:url(#linear4);stroke-width:3;stroke-linecap:round;stroke-linejoin:round;stroke:rgb(12.941177%,12.941177%,12.941177%);stroke-opacity:1;stroke-miterlimit:4;" d="M 179.920318 32.413873 C 176.983099 32.413873 174.639573 34.788646 174.639573 37.694619 L 174.639573 80.034326 C 174.639573 100.563615 200.574596 117.093287 232.821517 117.093287 C 262.256206 117.093287 286.441396 103.3446 290.441014 85.346318 L 306.908192 85.346318 C 315.71985 85.346318 322.781676 76.159696 322.781676 64.785782 L 322.781676 58.255155 C 322.781676 46.881242 315.71985 37.694619 306.908192 37.694619 L 291.034708 37.694619 C 291.034708 34.788646 288.691181 32.413873 285.753962 32.413873 Z M 291.034708 53.568103 L 301.627446 53.568103 C 304.564666 53.568103 306.908192 58.317649 306.908192 64.160841 C 306.908192 70.03528 304.564666 74.75358 301.627446 74.75358 L 291.034708 74.75358 Z M 291.034708 53.568103 " transform="matrix(0.125012,0,0,0.125012,0,26.877566)"/>
<path style="fill-rule:nonzero;fill:url(#linear5);stroke-width:3;stroke-linecap:butt;stroke-linejoin:miter;stroke:rgb(12.941177%,12.941177%,12.941177%);stroke-opacity:1;stroke-miterlimit:4;" d="M 227.552447 32.404465 C 227.552447 32.404465 207.616851 22.71789 216.709733 7.250617 C 223.240359 -3.904568 227.552447 -20.496733 227.552447 -20.496733 C 227.552447 -20.496733 248.706677 -9.903995 233.708109 13.874984 C 227.427459 23.874029 227.552447 32.404465 227.552447 32.404465 Z M 227.552447 32.404465 " transform="matrix(0.125012,0,0,0.125012,-1.653803,25.554524)"/>
<path style="fill-rule:nonzero;fill:url(#linear6);stroke-width:3;stroke-linecap:butt;stroke-linejoin:miter;stroke:rgb(12.941177%,12.941177%,12.941177%);stroke-opacity:1;stroke-miterlimit:4;" d="M 264.580161 32.404465 C 264.580161 32.404465 242.582262 22.467914 253.737447 7.250617 C 256.643419 3.313493 264.580161 -4.623249 264.580161 -4.623249 C 264.580161 -4.623249 275.1729 3.313493 270.76707 13.874984 C 265.142608 27.373695 264.580161 32.404465 264.580161 32.404465 Z M 264.580161 32.404465 " transform="matrix(0.125012,0,0,0.125012,-1.653803,25.554524)"/>
</g>
</svg>

<svg xmlns="http://www.w3.org/2000/svg" width="64pt" height="64pt" viewBox="0 0 64 64"><defs><linearGradient id="a" gradientUnits="userSpaceOnUse" x1="254" y1="233.5" x2="254" y2="254.667" gradientTransform="translate(1.323 26.878) scale(.12501)"><stop offset="0" stop-opacity=".275"/><stop offset="1" stop-opacity="0"/></linearGradient><radialGradient id="b" gradientUnits="userSpaceOnUse" cx="450.909" cy="189.579" fx="450.909" fy="189.579" r="21.167" gradientTransform="matrix(0 -.15626 -.28128 0 98.97 127.19)"><stop offset="0" stop-opacity=".314"/><stop offset=".222" stop-opacity=".275"/><stop offset="1" stop-opacity="0"/></radialGradient><radialGradient id="c" gradientUnits="userSpaceOnUse" cx="450.909" cy="189.579" fx="450.909" fy="189.579" r="21.167" gradientTransform="matrix(0 .15626 .28128 0 -36.786 -15.055)"><stop offset="0" stop-opacity=".314"/><stop offset=".222" stop-opacity=".275"/><stop offset="1" stop-opacity="0"/></radialGradient><radialGradient id="d" gradientUnits="userSpaceOnUse" cx="450.909" cy="189.579" fx="450.909" fy="189.579" r="21.167" gradientTransform="matrix(0 -.15626 .28128 0 -36.786 127.19)"><stop offset="0" stop-opacity=".314"/><stop offset=".222" stop-opacity=".275"/><stop offset="1" stop-opacity="0"/></radialGradient><radialGradient id="e" gradientUnits="userSpaceOnUse" cx="450.909" cy="189.579" fx="450.909" fy="189.579" r="21.167" gradientTransform="matrix(0 .15626 -.28128 0 98.97 -15.055)"><stop offset="0" stop-opacity=".314"/><stop offset=".222" stop-opacity=".275"/><stop offset="1" stop-opacity="0"/></radialGradient><linearGradient id="f" gradientUnits="userSpaceOnUse" x1="940" y1="1695.118" x2="940" y2="175.118" gradientTransform="scale(.03308)"><stop offset="0" stop-color="#ffab91"/><stop offset="1" stop-color="#ffccbc"/></linearGradient><linearGradient id="g" gradientUnits="userSpaceOnUse" x1="249.189" y1="233.5" x2="249.189" y2="254.667" gradientTransform="matrix(.05979 0 0 .21877 30.085 -32.722)"><stop offset="0" stop-opacity=".275"/><stop offset="1" stop-opacity="0"/></linearGradient><linearGradient id="h" gradientUnits="userSpaceOnUse" x1="338.667" y1="233.5" x2="338.667" y2="-168.667" gradientTransform="translate(0 26.878) scale(.12501)"><stop offset="0" stop-color="#ff7043"/><stop offset="1" stop-color="#ff8a65"/></linearGradient><linearGradient id="i" gradientUnits="userSpaceOnUse" x1="940" y1="1695.118" x2="940" y2="175.118" gradientTransform="matrix(.26458 0 0 .26458 -15.875 -215)"><stop offset="0" stop-color="#ff7043"/><stop offset="1" stop-color="#ff8a65"/></linearGradient><linearGradient id="j" gradientUnits="userSpaceOnUse" x1="246.063" y1="244.083" x2="246.063" y2="-158.083"><stop offset="0" stop-color="#ff7043"/><stop offset="1" stop-color="#ff8a65"/></linearGradient><linearGradient id="k" gradientUnits="userSpaceOnUse" x1="246.063" y1="244.083" x2="246.063" y2="-158.083"><stop offset="0" stop-color="#ff7043"/><stop offset="1" stop-color="#ff8a65"/></linearGradient></defs><path d="M15.875 56.066h30.43v2.649h-30.43zm0 0" fill="url(#a)"/><path d="M46.305 56.066h5.293v-2.644h-5.293zm0 0" fill="url(#b)"/><path d="M15.875 56.066h-5.29v2.649h5.29zm0 0" fill="url(#c)"/><path d="M15.875 56.066h-5.29v-2.644h5.29zm0 0" fill="url(#d)"/><path d="M46.305 56.066h5.293v2.649h-5.293zm0 0" fill="url(#e)"/><path d="M37.086 5.793H13.23a2.639 2.639 0 0 0-2.644 2.644v44.985a2.639 2.639 0 0 0 2.644 2.644h35.723a2.639 2.639 0 0 0 2.645-2.644V20.309zm0 0" fill="url(#f)"/><path d="M37.047 18.36h12.566l1.985 1.984v2.648H37.047zm0 0" fill="url(#g)"/><path d="M10.586 52.395v1.027a2.639 2.639 0 0 0 2.644 2.644h35.723a2.639 2.639 0 0 0 2.645-2.644v-1.027a2.639 2.639 0 0 1-2.645 2.644H13.23a2.639 2.639 0 0 1-2.644-2.644zm0 0" fill-opacity=".235"/><path d="M13.23 5.793a2.639 2.639 0 0 0-2.644 2.644v.993a2.639 2.639 0 0 1 2.644-2.645h23.856l14.512 14.516v-.992L37.086 5.793zm0 0" fill="#fff" fill-opacity=".392"/><path d="M51.598 20.309L37.086 5.793V17.66a2.642 2.642 0 0 0 2.644 2.649zm0 0" fill="url(#h)"/><path d="M37.086 17.04v.62a2.642 2.642 0 0 0 2.644 2.649h11.868l-.621-.625H39.73a2.639 2.639 0 0 1-2.644-2.645zm0 0" fill-opacity=".235"/><path d="M37.086 5.793v.992l13.52 13.524h.992zm0 0" fill="#fff" fill-opacity=".392"/><path d="M37.082 5.605a.187.187 0 0 0-.184.188V17.66a2.832 2.832 0 0 0 2.832 2.836h11.868a.198.198 0 0 0 .175-.117.186.186 0 0 0-.043-.203L37.215 5.66a.186.186 0 0 0-.133-.055zm.191.641l13.872 13.871H39.73a2.444 2.444 0 0 1-2.457-2.457zm0 0" fill="#212121"/><path d="M13.23 5.605a2.83 2.83 0 0 0-2.832 2.832v44.985a2.83 2.83 0 0 0 2.832 2.832h35.723a2.83 2.83 0 0 0 2.832-2.832V20.309c0-.051-.02-.098-.055-.133L37.215 5.66a.184.184 0 0 0-.13-.055zm0 .375h23.778L51.41 20.383v33.039a2.449 2.449 0 0 1-2.457 2.457H13.23a2.447 2.447 0 0 1-2.457-2.457V8.438A2.447 2.447 0 0 1 13.23 5.98zm0 0" fill="#212121"/><path d="M179.92 32.414a5.274 5.274 0 0 0-5.28 5.28v42.34c0 20.53 25.935 37.06 58.182 37.06 29.434 0 53.62-13.75 57.619-31.748h16.467c8.812 0 15.874-9.186 15.874-20.56v-6.53c0-11.375-7.062-20.561-15.874-20.561h-15.873a5.274 5.274 0 0 0-5.281-5.281zm111.115 21.154h10.592c2.938 0 5.281 4.75 5.281 10.593 0 5.874-2.343 10.593-5.28 10.593h-10.593zm0 0" transform="translate(0 26.878) scale(.12501)" fill="url(#i)" stroke-width="3" stroke-linecap="round" stroke-linejoin="round" stroke="#212121"/><path d="M227.552 32.404s-19.935-9.686-10.842-25.153c6.53-11.156 10.842-27.748 10.842-27.748s21.155 10.593 6.156 34.372c-6.28 9.999-6.156 18.53-6.156 18.53zm0 0" transform="translate(-1.654 25.555) scale(.12501)" fill="url(#j)" stroke-width="3" stroke="#212121"/><path d="M264.58 32.404s-21.998-9.936-10.843-25.153c2.906-3.938 10.843-11.874 10.843-11.874s10.593 7.936 6.187 18.498c-5.624 13.499-6.187 18.53-6.187 18.53zm0 0" transform="translate(-1.654 25.555) scale(.12501)" fill="url(#k)" stroke-width="3" stroke="#212121"/></svg>
